svg/example-09.svg

<svg class="typst-doc" viewBox="0 0 396.8503937007874 297.6377952755906" width="396.8503937007874pt" height="297.6377952755906pt" xmlns="http://www.w3.org/2000/svg" xmlns:xlink="http://www.w3.org/1999/xlink" xmlns:h5="http://www.w3.org/1999/xhtml">
    <path class="typst-shape" fill="#ffffff" fill-rule="nonzero" d="M 0 0v 297.6378 h 396.8504 v -297.6378 Z "/>
    <g>
        <g class="typst-text" transform="matrix(1 0 0 -1 153.5104808503937 153.10696110236222)">
            <use xlink:href="#g5DEDD697FAF92C72E032E9B3F6B889EB" x="0" y="0" fill="#004682" fill-rule="nonzero"/>
            <use xlink:href="#gE157D1306AE52EEED6F2D01B19EBB4EC" x="10.245312" y="0" fill="#004682" fill-rule="nonzero"/>
            <use xlink:href="#g64F76607BA3FADD1990C595C89355359" x="22.401456" y="0" fill="#004682" fill-rule="nonzero"/>
            <use xlink:href="#g64F76607BA3FADD1990C595C89355359" x="40.798296" y="0" fill="#004682" fill-rule="nonzero"/>
            <use xlink:href="#g52D8E8E1DF64ED216C25EF032848F65C" x="59.195136000000005" y="0" fill="#004682" fill-rule="nonzero"/>
            <use xlink:href="#gCC333C8DFF16D4C070F3C2D4D9763B64" x="69.481104" y="0" fill="#004682" fill-rule="nonzero"/>
            <use xlink:href="#gA87D2CACE1530ACA311ECDE7A6BF783D" x="78.486408" y="0" fill="#004682" fill-rule="nonzero"/>
        </g>
    </g>
    <defs id="glyph">
        <symbol id="g5DEDD697FAF92C72E032E9B3F6B889EB" overflow="visible">
            <path d="M 0 0m 8.558088 12.826968 c -1.1180401 0.16262436 -1.5449281 0.5488558 -3.4354324 0.5488558 c -0.91475964 0 -2.114112 -0.28459167 -2.9678879 -0.97574425 c -0.752136 -0.60983944 -1.32132 -1.5449276 -1.32132 -2.5409994 c 0 -0.7724638 0.20328003 -1.748208 0.670824 -2.3580484 c 0.93508816 -1.2603359 2.622312 -1.951488 3.496416 -2.561328 c 0.93508816 -0.650496 1.8498478 -1.4636159 1.8498478 -2.601984 c 0 -0.99607193 -0.874104 -1.6872239 -2.114112 -1.6872239 c -1.3619759 0 -2.764608 1.11804 -3.1711679 2.967888 c -0.325248 0.12196803 -0.650496 0.04065585 -0.95541596 -0.04065609 c -0.020328045 0 -0.04065603 -0.020328045 -0.060984015 -0.020328045 c 0 -1.5246 0.162624 -2.601984 0.38623202 -3.35412 c 1.158696 0 1.21968 -0.40656 4.024944 -0.40656 c 1.2400079 0 2.2360802 0.365904 3.069528 1.11804 c 0.7318077 0.6301681 1.3823042 1.565256 1.3823042 2.825592 c 0 1.057056 -0.44721603 1.7685361 -1.0570564 2.4393601 c -0.79279184 0.87410355 -1.93116 1.504272 -2.7239518 1.9108315 c -0.8131199 0.40655994 -2.256408 1.4636164 -2.256408 2.6223125 c 0 1.1383677 0.69115186 1.8295202 1.7278798 1.8295202 c 1.72788 0 2.2970643 -1.5652561 2.6629682 -2.9069042 c 0.28459167 -0.08131218 0.7927923 -0.08131218 1.0164003 0.10163975 c 0 1.077384 -0.08131218 1.9108324 -0.22360802 3.0898561 Z "/>
        </symbol>
        <symbol id="gE157D1306AE52EEED6F2D01B19EBB4EC" overflow="visible">
            <path d="M 0 0m 10.36728 2.703624 v 3.516744 c 0 1.707552 0.04065609 1.4636164 0.04065609 1.951488 c 0 0.3455763 -0.08131218 0.5691843 -0.20328045 0.6911526 c -0.36590385 -0.020328522 -0.7724638 -0.04065609 -1.1586952 -0.04065609 c -0.5691843 0 -1.8905044 0.020327568 -2.6832962 0.04065609 c -0.12196827 -0.12196827 -0.12196827 -0.5691843 0 -0.6911526 c 1.0367279 -0.10163975 1.3619757 -0.24393606 1.3619757 -1.951488 v -3.76068 c 0 -0.20327997 0 -0.40655994 0.020328045 -0.6098399 c -0.83344793 -0.50820005 -1.504272 -0.548856 -1.8701758 -0.548856 c -0.8131199 0 -1.4229603 0.101639986 -1.4229603 1.5246 v 3.3947759 c 0 1.707552 0.04065609 1.4636164 0.04065609 1.951488 c 0 0.3455763 -0.0813117 0.5691843 -0.20327997 0.6911526 c -0.36590385 -0.020328522 -0.79279184 -0.04065609 -1.1586959 -0.04065609 c -1.0367279 0 -1.809192 0.020327568 -2.683296 0.04065609 c -0.121968 -0.12196827 -0.121968 -0.5691843 0 -0.6911526 c 0.9350879 -0.04065609 1.361976 -0.24393606 1.361976 -1.951488 v -3.1711679 c 0 -2.154768 0.85377586 -3.25248 2.601984 -3.25248 c 0.7318077 0 2.2157516 0.589512 3.3947759 1.240008 c 0.04065609 -0.50820005 0.08131218 -0.894432 0.08131218 -0.894432 c 0.020328045 -0.243936 0.18295193 -0.345576 0.4675436 -0.345576 c 0.75213623 0.20328 1.9718161 0.487872 3.3744478 0.67082405 c 0.04065609 0.12196797 0 0.528528 -0.040655136 0.65049595 c -1.0977125 0.101640105 -1.3213205 0.4268881 -1.3213205 1.585584 Z "/>
        </symbol>
        <symbol id="g64F76607BA3FADD1990C595C89355359" overflow="visible">
            <path d="M 0 0m 4.634784 2.480016 v 4.045272 c 0 0.10163975 0 0.20327997 0 0.30491972 c 0.79279184 0.48787212 1.504272 0.6911521 1.8498478 0.6911521 c 0.8131199 0 1.4229603 -0.36590385 1.4229603 -1.5246 v -3.3947759 c 0 -1.707552 -0.32524824 -1.890504 -1.1586962 -1.951488 c -0.12196827 -0.12196803 -0.12196827 -0.569184 0 -0.691152 c 0.853776 0.020328 1.504272 0.040656 2.4800162 0.040656 c 0.9757433 0 1.6059122 -0.020328 2.4800158 -0.040656 c 0.12196827 0.121968 0.12196827 0.56918395 0 0.691152 c -0.8131199 0.060984015 -1.1586962 0.243936 -1.1586962 1.951488 v 3.1711679 c 0 0.50820017 -0.020327568 0.9147601 -0.08131218 1.1180401 c 0.77246475 0.3862319 1.6465683 0.63016796 1.9718161 0.63016796 c 0.8131199 0 1.3823042 -0.36590385 1.3823042 -1.5246 v -3.3947759 c 0 -1.707552 -0.32524776 -1.890504 -1.1586962 -1.951488 c -0.121967316 -0.12196803 -0.121967316 -0.569184 0 -0.691152 c 0.853776 0.020328 1.5042725 0.040656 2.4800167 0.040656 c 1.1180391 0 2.0124712 -0.020328 2.8865747 -0.040656 c 0.12196922 0.121968 0.12196922 0.56918395 0 0.691152 c -1.2400074 0.060984015 -1.5652542 0.243936 -1.5652542 1.951488 v 3.1711679 c 0 2.2360806 -0.81312084 3.25248 -2.561329 3.25248 c -0.75213623 0 -2.4596882 -0.8131199 -3.638712 -1.4636159 c -0.3049202 0.874104 -1.1180401 1.4636159 -2.3173923 1.4636159 c -0.7318077 0 -2.195424 -0.7724638 -3.3541198 -1.4229598 c -0.060984135 0.6098399 -0.12196827 1.0773835 -0.12196827 1.0773835 c -0.020328045 0.24393654 -0.18295193 0.3455763 -0.4675436 0.3455763 c -0.75213623 -0.2032795 -1.9718163 -0.48787212 -3.3744483 -0.67082405 c -0.04065603 -0.121967316 0 -0.52852774 0.04065597 -0.650496 c 1.1180401 -0.10163975 1.32132 -0.26426363 1.32132 -1.4229598 v -3.801336 c 0 -1.6872239 -0.22360802 -1.72788 -1.463616 -1.82952 c -0.12196797 -0.12196803 -0.12196797 -0.569184 0 -0.691152 c 0.853776 0.020328 1.707552 0.040656 2.784936 0.040656 c 0.9350879 0 1.5042722 -0.020328 2.3783762 -0.040656 c 0.12196779 0.121968 0.12196779 0.56918395 0 0.691152 c -0.853776 0.081312 -1.057056 0.14229602 -1.057056 1.82952 Z "/>
        </symbol>
        <symbol id="g52D8E8E1DF64ED216C25EF032848F65C" overflow="visible">
            <path d="M 0 0m 5.99676 0.996072 c 0.14229631 -0.833448 0.6911521 -1.199352 1.5855842 -1.199352 c 1.1180401 0 1.9108324 0.426888 2.6629677 1.138368 c -0.04065609 0.24393594 -0.121967316 0.40655994 -0.36590385 0.56918395 c -0.2642641 -0.20327997 -0.4675436 -0.2845919 -0.853776 -0.2845919 c -0.44721603 0 -0.5691843 0.36590397 -0.5691843 1.3619759 l 0.04065609 2.9272323 c 0 2.9272318 -1.8091917 3.5167437 -3.4760876 3.5167437 c -1.4839442 0 -3.7606802 -0.853776 -3.7606802 -2.195424 c 0 -0.5691838 0.24393594 -1.0163999 1.036728 -1.0163999 c 0.73180795 0 1.2603359 0.44721603 1.2603359 0.93508816 c 0 0.10163975 -0.020328045 0.22360802 -0.04065585 0.3455758 c -0.04065609 0.20327997 -0.08131218 0.40655994 -0.04065609 0.6098399 c 0.020328045 0.22360802 0.18295193 0.46754408 0.853776 0.46754408 c 0.853776 0 1.5652561 -0.36590385 1.5652561 -2.9475598 l -1.3619761 -0.426888 c -2.13444 -0.67082405 -3.638712 -1.2603362 -3.638712 -2.8662481 c 0 -1.402632 0.772464 -2.13444 2.541 -2.13444 c 0.5895119 0 1.7685361 0.650496 2.4393601 1.179024 Z m -0.10163975 3.4354322 v -2.6832962 c -0.50820017 -0.40656006 -1.0163999 -0.73180807 -1.3823042 -0.73180807 c -0.874104 0 -1.179024 0.589512 -1.179024 1.21968 c 0 0.752136 0.060984135 1.3823042 1.5042722 1.849848 Z "/>
        </symbol>
        <symbol id="gCC333C8DFF16D4C070F3C2D4D9763B64" overflow="visible">
            <path d="M 0 0m 4.634784 5.447904 c 0 0.7318082 0.22360802 1.0367279 0.48787165 1.3416481 c 0.16262436 0.20327997 0.3455763 0.3455758 0.650496 0.3455758 c 0.1829524 0 0.40656042 -0.18295193 0.5691843 -0.3862319 c 0.14229584 -0.16262388 0.48787165 -0.32524824 0.9554157 -0.32524824 c 0.58951235 0 1.1586957 0.6098404 1.1586957 1.4636164 c 0 0.5285282 -0.60983944 1.1383677 -1.3416476 1.1383677 c -0.71148014 0 -1.4839439 -0.60983944 -2.419032 -1.951488 h -0.0813117 c -0.04065609 0.6098404 -0.14229631 1.6059117 -0.14229631 1.6059117 c -0.020328045 0.18295288 -0.18295193 0.3455763 -0.4675436 0.3455763 c -0.9554162 -0.24393559 -2.0328002 -0.5285282 -3.3744483 -0.67082405 c -0.04065603 -0.121967316 0 -0.5081997 0.04065597 -0.63016796 c 1.1180401 -0.10163975 1.32132 -0.28459167 1.32132 -1.4432878 v -3.801336 c 0 -1.6872239 -0.22360802 -1.72788 -1.463616 -1.82952 c -0.12196797 -0.12196803 -0.12196797 -0.569184 0 -0.691152 c 0.853776 0.020328 1.707552 0.040656 2.784936 0.040656 c 1.0773842 0 1.9108322 -0.020328 2.7849362 -0.040656 c 0.12196779 0.121968 0.12196779 0.56918395 0 0.691152 c -1.2400079 0.081312 -1.4636159 0.14229602 -1.4636159 1.82952 Z "/>
        </symbol>
        <symbol id="gA87D2CACE1530ACA311ECDE7A6BF783D" overflow="visible">
            <path d="M 0 0m 4.919376 -3.415104 c 0.32524824 0.5691838 0.63016796 1.300992 0.874104 1.9108319 c 1.6262403 3.923304 2.6223125 6.118728 3.6996965 8.395464 c 0.28459167 0.58951235 0.89443207 1.2196803 1.6465673 1.280664 c 0.12196827 0.12196827 0.12196827 0.5691843 0 0.6911526 c -0.5081997 -0.020328522 -0.87410355 -0.04065609 -1.4432878 -0.04065609 c -0.71148014 0 -1.4026318 0.020327568 -2.154768 0.04065609 c -0.12196779 -0.12196827 -0.12196779 -0.5691843 0 -0.6911526 c 0.6504965 -0.060983658 1.300992 -0.1626234 0.97574425 -0.89443207 l -2.0937843 -4.695768 c 0 -0.020328045 0 -0.020328045 -0.020328045 -0.04065585 c 0 0.020327806 0 0.04065585 -0.020327568 0.08131194 l -1.8905044 4.248552 c -0.020328045 0.020328045 -0.020328045 0.04065609 -0.020328045 0.060984135 c -0.36590385 0.79279184 -0.50819993 1.1383681 0.6911521 1.2400079 c 0.12196827 0.12196827 0.12196827 0.5691843 0 0.6911526 c -0.75213575 -0.020328522 -1.9718158 -0.04065609 -2.703624 -0.04065609 c -0.691152 0 -1.8498479 0.020327568 -2.256408 0.04065609 c -0.121968 -0.12196827 -0.121968 -0.5691843 0 -0.6911526 c 0.89443207 -0.08131218 1.0570561 -0.22360802 1.6059121 -1.504272 l 2.622312 -6.017088 c 0.060983658 -0.101639986 0.14229584 -0.18295199 0.20327997 -0.264264 c 0.26426363 -0.36590403 0.48787165 -0.67082405 0.36590385 -0.955416 l -0.48787212 -1.1180401 c -0.2642641 -0.6301681 -0.5081997 -0.99607193 -1.077384 -0.99607193 c -0.36590385 0 -0.426888 0.08131194 -0.7114799 0.08131194 c -0.77246404 0 -1.2196801 -0.528528 -1.2196801 -0.9350879 c 0 -0.2642641 0.060984015 -0.5895121 0.24393606 -0.8131201 c 0.18295193 -0.22360802 0.528528 -0.36590385 0.7927921 -0.36590385 c 0.26426387 0 0.8741038 0.0813117 1.1586959 0.20327997 c 0.426888 0.20327997 0.9960718 0.69115186 1.2196798 1.097712 Z "/>
        </symbol>
    </defs>
</svg>

<svg class="typst-doc" viewBox="0 0 396.8503937007874 297.6377952755906" width="396.8503937007874pt" height="297.6377952755906pt" xmlns="http://www.w3.org/2000/svg" xmlns:xlink="http://www.w3.org/1999/xlink" xmlns:h5="http://www.w3.org/1999/xhtml">
    <path class="typst-shape" fill="#ffffff" fill-rule="nonzero" d="M 0 0 L 0 297.6378 L 396.8504 297.6378 L 396.8504 0 Z "/>
    <g>
        <g transform="translate(153.5104808503937 153.10696110236222)">
            <g class="typst-text" transform="scale(1, -1)">
                <use xlink:href="#g5BC4E3BBF1F65C514626A81009731367" x="0" fill="#004682" fill-rule="nonzero"/>
                <use xlink:href="#gB91E2F72B37FF3DB7C0DD86703C68A59" x="10.245312" fill="#004682" fill-rule="nonzero"/>
                <use xlink:href="#g7BE624421161D1194D629F7D6654B077" x="22.401456" fill="#004682" fill-rule="nonzero"/>
                <use xlink:href="#g7BE624421161D1194D629F7D6654B077" x="40.798296" fill="#004682" fill-rule="nonzero"/>
                <use xlink:href="#gC29D5B8831393A49A5AA934599251117" x="59.195136000000005" fill="#004682" fill-rule="nonzero"/>
                <use xlink:href="#g85B0A69457E166CD3628522E4A39E2B8" x="69.481104" fill="#004682" fill-rule="nonzero"/>
                <use xlink:href="#gBB91A91F73BD03967A2F282317B5871D" x="78.486408" fill="#004682" fill-rule="nonzero"/>
            </g>
        </g>
    </g>
    <defs id="glyph">
        <symbol id="g5BC4E3BBF1F65C514626A81009731367" overflow="visible">
            <path d="M 8.558088 12.826968 C 7.440048 12.989593 7.01316 13.375824 5.122656 13.375824 C 4.207896 13.375824 3.008544 13.091232 2.154768 12.40008 C 1.402632 11.79024 0.833448 10.855152 0.833448 9.85908 C 0.833448 9.0866165 1.036728 8.110872 1.504272 7.501032 C 2.4393601 6.240696 4.126584 5.549544 5.000688 4.939704 C 5.935776 4.289208 6.850536 3.476088 6.850536 2.33772 C 6.850536 1.341648 5.976432 0.650496 4.736424 0.650496 C 3.374448 0.650496 1.9718161 1.768536 1.565256 3.6183841 C 1.240008 3.7403522 0.91476 3.65904 0.60984004 3.577728 C 0.589512 3.577728 0.569184 3.5574 0.548856 3.5574 C 0.548856 2.0328 0.71148 0.955416 0.93508804 0.20328 C 2.093784 0.20328 2.154768 -0.20328 4.960032 -0.20328 C 6.20004 -0.20328 7.196112 0.162624 8.02956 0.91476 C 8.761368 1.5449281 9.411864 2.480016 9.411864 3.7403522 C 9.411864 4.797408 8.964648 5.5088882 8.354808 6.1797123 C 7.562016 7.053816 6.423648 7.6839843 5.630856 8.090544 C 4.817736 8.497104 3.374448 9.55416 3.374448 10.712856 C 3.374448 11.851224 4.0656 12.5423765 5.102328 12.5423765 C 6.830208 12.5423765 7.399392 10.97712 7.765296 9.635472 C 8.049888 9.55416 8.558088 9.55416 8.781696 9.737112 C 8.781696 10.814496 8.700384 11.647944 8.558088 12.826968 Z "/>
        </symbol>
        <symbol id="gB91E2F72B37FF3DB7C0DD86703C68A59" overflow="visible">
            <path d="M 10.36728 2.703624 L 10.36728 6.220368 C 10.36728 7.92792 10.407936 7.6839843 10.407936 8.171856 C 10.407936 8.517432 10.326624 8.74104 10.204656 8.8630085 C 9.838752 8.84268 9.432192 8.822352 9.04596 8.822352 C 8.476776 8.822352 7.155456 8.84268 6.362664 8.8630085 C 6.240696 8.74104 6.240696 8.293824 6.362664 8.171856 C 7.399392 8.070216 7.72464 7.92792 7.72464 6.220368 L 7.72464 2.459688 C 7.72464 2.256408 7.72464 2.053128 7.744968 1.849848 C 6.91152 1.341648 6.240696 1.300992 5.874792 1.300992 C 5.061672 1.300992 4.451832 1.402632 4.451832 2.825592 L 4.451832 6.220368 C 4.451832 7.92792 4.492488 7.6839843 4.492488 8.171856 C 4.492488 8.517432 4.411176 8.74104 4.289208 8.8630085 C 3.923304 8.84268 3.496416 8.822352 3.130512 8.822352 C 2.093784 8.822352 1.32132 8.84268 0.447216 8.8630085 C 0.325248 8.74104 0.325248 8.293824 0.447216 8.171856 C 1.382304 8.1312 1.8091921 7.92792 1.8091921 6.220368 L 1.8091921 3.0492 C 1.8091921 0.894432 2.662968 -0.20328 4.411176 -0.20328 C 5.142984 -0.20328 6.626928 0.38623202 7.805952 1.036728 C 7.846608 0.528528 7.8872643 0.142296 7.8872643 0.142296 C 7.9075923 -0.10164 8.070216 -0.20328 8.354808 -0.20328 C 9.106944 0 10.326624 0.284592 11.729256 0.46754402 C 11.769912 0.589512 11.729256 0.996072 11.688601 1.11804 C 10.590888 1.2196801 10.36728 1.5449281 10.36728 2.703624 Z "/>
        </symbol>
        <symbol id="g7BE624421161D1194D629F7D6654B077" overflow="visible">
            <path d="M 4.634784 2.480016 L 4.634784 6.525288 C 4.634784 6.626928 4.634784 6.728568 4.634784 6.830208 C 5.427576 7.31808 6.139056 7.52136 6.484632 7.52136 C 7.297752 7.52136 7.9075923 7.155456 7.9075923 5.99676 L 7.9075923 2.601984 C 7.9075923 0.894432 7.582344 0.71148 6.748896 0.650496 C 6.626928 0.528528 6.626928 0.081312 6.748896 -0.040656 C 7.602672 -0.020328 8.253168 0 9.228912 0 C 10.204656 0 10.834825 -0.020328 11.708928 -0.040656 C 11.830896 0.081312 11.830896 0.528528 11.708928 0.650496 C 10.895808 0.71148 10.550232 0.894432 10.550232 2.601984 L 10.550232 5.773152 C 10.550232 6.281352 10.529904 6.687912 10.46892 6.891192 C 11.2413845 7.277424 12.115488 7.52136 12.440736 7.52136 C 13.253856 7.52136 13.82304 7.155456 13.82304 5.99676 L 13.82304 2.601984 C 13.82304 0.894432 13.497792 0.71148 12.664344 0.650496 C 12.5423765 0.528528 12.5423765 0.081312 12.664344 -0.040656 C 13.51812 -0.020328 14.168616 0 15.144361 0 C 16.2624 0 17.156832 -0.020328 18.030935 -0.040656 C 18.152905 0.081312 18.152905 0.528528 18.030935 0.650496 C 16.790928 0.71148 16.465681 0.894432 16.465681 2.601984 L 16.465681 5.773152 C 16.465681 8.0092325 15.65256 9.025632 13.904352 9.025632 C 13.152216 9.025632 11.444664 8.212512 10.26564 7.562016 C 9.96072 8.43612 9.1476 9.025632 7.948248 9.025632 C 7.21644 9.025632 5.752824 8.253168 4.594128 7.602672 C 4.533144 8.212512 4.47216 8.680056 4.47216 8.680056 C 4.451832 8.923992 4.289208 9.025632 4.0046163 9.025632 C 3.25248 8.822352 2.0328 8.53776 0.630168 8.354808 C 0.589512 8.232841 0.630168 7.82628 0.670824 7.704312 C 1.788864 7.602672 1.992144 7.440048 1.992144 6.281352 L 1.992144 2.480016 C 1.992144 0.792792 1.768536 0.752136 0.528528 0.650496 C 0.40656 0.528528 0.40656 0.081312 0.528528 -0.040656 C 1.382304 -0.020328 2.23608 0 3.313464 0 C 4.248552 0 4.817736 -0.020328 5.69184 -0.040656 C 5.813808 0.081312 5.813808 0.528528 5.69184 0.650496 C 4.838064 0.731808 4.634784 0.792792 4.634784 2.480016 Z "/>
        </symbol>
        <symbol id="gC29D5B8831393A49A5AA934599251117" overflow="visible">
            <path d="M 5.99676 0.996072 C 6.139056 0.162624 6.687912 -0.20328 7.582344 -0.20328 C 8.700384 -0.20328 9.493176 0.223608 10.245312 0.93508804 C 10.204656 1.179024 10.123344 1.341648 9.879408 1.504272 C 9.615144 1.300992 9.411864 1.2196801 9.025632 1.2196801 C 8.578416 1.2196801 8.456448 1.585584 8.456448 2.581656 L 8.497104 5.5088882 C 8.497104 8.43612 6.687912 9.025632 5.021016 9.025632 C 3.537072 9.025632 1.260336 8.171856 1.260336 6.830208 C 1.260336 6.261024 1.504272 5.813808 2.297064 5.813808 C 3.028872 5.813808 3.5574 6.261024 3.5574 6.748896 C 3.5574 6.850536 3.537072 6.972504 3.5167441 7.094472 C 3.476088 7.297752 3.435432 7.501032 3.476088 7.704312 C 3.496416 7.92792 3.65904 8.171856 4.329864 8.171856 C 5.18364 8.171856 5.89512 7.805952 5.89512 5.224296 L 4.533144 4.797408 C 2.398704 4.126584 0.894432 3.537072 0.894432 1.93116 C 0.894432 0.528528 1.666896 -0.20328 3.435432 -0.20328 C 4.024944 -0.20328 5.203968 0.447216 5.874792 0.975744 Z M 5.89512 4.4315042 L 5.89512 1.748208 C 5.38692 1.341648 4.8787203 1.0164 4.512816 1.0164 C 3.638712 1.0164 3.333792 1.605912 3.333792 2.23608 C 3.333792 2.988216 3.394776 3.6183841 4.838064 4.085928 Z "/>
        </symbol>
        <symbol id="g85B0A69457E166CD3628522E4A39E2B8" overflow="visible">
            <path d="M 4.634784 5.447904 C 4.634784 6.1797123 4.8583922 6.484632 5.122656 6.789552 C 5.28528 6.992832 5.468232 7.135128 5.773152 7.135128 C 5.9561043 7.135128 6.1797123 6.952176 6.342336 6.748896 C 6.484632 6.5862722 6.830208 6.423648 7.297752 6.423648 C 7.8872643 6.423648 8.456448 7.0334883 8.456448 7.8872643 C 8.456448 8.415792 7.846608 9.025632 7.1148 9.025632 C 6.40332 9.025632 5.630856 8.415792 4.695768 7.074144 L 4.614456 7.074144 C 4.5738 7.6839843 4.47216 8.680056 4.47216 8.680056 C 4.451832 8.8630085 4.289208 9.025632 4.0046163 9.025632 C 3.0492 8.781696 1.9718161 8.497104 0.630168 8.354808 C 0.589512 8.232841 0.630168 7.846608 0.670824 7.72464 C 1.788864 7.623 1.992144 7.440048 1.992144 6.281352 L 1.992144 2.480016 C 1.992144 0.792792 1.768536 0.752136 0.528528 0.650496 C 0.40656 0.528528 0.40656 0.081312 0.528528 -0.040656 C 1.382304 -0.020328 2.23608 0 3.313464 0 C 4.390848 0 5.224296 -0.020328 6.0984 -0.040656 C 6.220368 0.081312 6.220368 0.528528 6.0984 0.650496 C 4.8583922 0.731808 4.634784 0.792792 4.634784 2.480016 Z "/>
        </symbol>
        <symbol id="gBB91A91F73BD03967A2F282317B5871D" overflow="visible">
            <path d="M 4.919376 -3.415104 C 5.244624 -2.84592 5.549544 -2.114112 5.79348 -1.504272 C 7.41972 2.419032 8.415792 4.614456 9.493176 6.891192 C 9.777768 7.4807043 10.387609 8.110872 11.139744 8.171856 C 11.261712 8.293824 11.261712 8.74104 11.139744 8.8630085 C 10.631544 8.84268 10.26564 8.822352 9.696456 8.822352 C 8.984976 8.822352 8.293824 8.84268 7.541688 8.8630085 C 7.41972 8.74104 7.41972 8.293824 7.541688 8.171856 C 8.192184 8.110872 8.84268 8.0092325 8.517432 7.277424 L 6.423648 2.581656 C 6.423648 2.561328 6.423648 2.561328 6.40332 2.5410001 C 6.40332 2.561328 6.40332 2.581656 6.3829923 2.622312 L 4.492488 6.870864 C 4.47216 6.891192 4.47216 6.91152 4.47216 6.931848 C 4.106256 7.72464 3.96396 8.070216 5.163312 8.171856 C 5.28528 8.293824 5.28528 8.74104 5.163312 8.8630085 C 4.411176 8.84268 3.1914961 8.822352 2.459688 8.822352 C 1.768536 8.822352 0.60984004 8.84268 0.20328 8.8630085 C 0.081312 8.74104 0.081312 8.293824 0.20328 8.171856 C 1.097712 8.090544 1.260336 7.948248 1.8091921 6.667584 L 4.4315042 0.650496 C 4.492488 0.548856 4.5738 0.46754402 4.634784 0.38623202 C 4.899048 0.020328 5.122656 -0.284592 5.000688 -0.569184 L 4.512816 -1.687224 C 4.248552 -2.317392 4.0046163 -2.683296 3.435432 -2.683296 C 3.069528 -2.683296 3.008544 -2.601984 2.723952 -2.601984 C 1.951488 -2.601984 1.504272 -3.130512 1.504272 -3.537072 C 1.504272 -3.801336 1.565256 -4.126584 1.748208 -4.350192 C 1.93116 -4.5738 2.276736 -4.716096 2.5410001 -4.716096 C 2.805264 -4.716096 3.415104 -4.634784 3.699696 -4.512816 C 4.126584 -4.309536 4.695768 -3.821664 4.919376 -3.415104 Z "/>
        </symbol>
    </defs>
</svg>
